X: 19743
T: Jenny Picking Cockles
R: reel
M: 4/4
K: Dmixolydian
|:Ad (3ddd AGEF|GEcE dEcE|Ad (3dcd AGEF|GEcE ED D2|
Ad (3ddd AGEF|GE (3EDE c2 cd|ec (3cBc AGEF|GEcE ED D2:|
|:fafd (3efg ed|cAAB cAcd|(3fga fd efed|eaag ef d2|
fffd efed|cAAB cccd|ec (3ccc AGEF|GEcE ED D2:|

